src/extras-openmoji/emergency/E0A5.svg

<svg id="emoji" viewBox="0 0 72 72" xmlns="http://www.w3.org/2000/svg">
  <g id="grid">
    <path fill="#b3b3b3" d="M68,4V68H4V4H68m4-4H0V72H72V0Z"/>
    <path fill="none" stroke="#00a5ff" stroke-miterlimit="10" stroke-width="0.1" d="M12.923,10.9583H59.0769A1.9231,1.9231,0,0,1,61,12.8814V59.0352a1.9231,1.9231,0,0,1-1.9231,1.9231H12.9231A1.9231,1.9231,0,0,1,11,59.0352V12.8813A1.923,1.923,0,0,1,12.923,10.9583Z"/>
    <rect x="16" y="4" rx="2.2537" ry="2.2537" width="40" height="64" fill="none" stroke="#00a5ff" stroke-miterlimit="10" stroke-width="0.1"/>
    <rect x="16" y="4" rx="2.2537" ry="2.2537" width="40" height="64" transform="translate(72) rotate(90)" fill="none" stroke="#00a5ff" stroke-miterlimit="10" stroke-width="0.1"/>
    <circle cx="36" cy="36" r="29" fill="none" stroke="#00a5ff" stroke-miterlimit="10" stroke-width="0.1"/>
  </g>
  <g id="color">
    <path fill="#fcea2b" d="M11.6022,27.0359a2.7339,2.7339,0,0,1,2.5041-1.9354h50.72a1.4722,1.4722,0,0,1,1.4959,1.9354L60.6105,48.9641A2.7341,2.7341,0,0,1,58.1063,50.9H7.3863a1.4721,1.4721,0,0,1-1.4958-1.9354Z"/>
    <path fill="#f1b31c" d="M60.4443,49.6138,63.939,36.1853A193.6507,193.6507,0,0,1,38.9863,45.14a218.0268,218.0268,0,0,1-28.8,5.76H58.7441A1.7112,1.7112,0,0,0,60.4443,49.6138Z"/>
    <polygon points="34.006 25.1 43.606 25.1 36.886 50.9 27.286 50.9 34.006 25.1"/>
    <polygon points="49.667 25.1 59.267 25.1 52.547 50.9 42.947 50.9 49.667 25.1"/>
    <polygon points="18.346 25.1 27.946 25.1 21.226 50.9 11.626 50.9 18.346 25.1"/>
    <path fill="none" d="M11.6022,27.0359a2.7339,2.7339,0,0,1,2.5041-1.9354h50.72a1.4722,1.4722,0,0,1,1.4959,1.9354L60.6105,48.9641A2.7341,2.7341,0,0,1,58.1063,50.9H7.3863a1.4721,1.4721,0,0,1-1.4958-1.9354Z"/>
  </g>
  <g id="line">
    <path fill="none" stroke="#000" stroke-linecap="round" stroke-linejoin="round" stroke-width="2" d="M10.9891,27.0475a2.6542,2.6542,0,0,1,2.4573-1.947h51.38a1.4939,1.4939,0,0,1,1.5192,1.9413L60.9171,48.9582A2.6938,2.6938,0,0,1,58.4363,50.9H7.3863a1.5161,1.5161,0,0,1-1.5426-1.947Z"/>
    <line x1="38.6705" x2="31.9505" y1="25.1005" y2="50.8995" fill="none" stroke="#000" stroke-linecap="round" stroke-linejoin="round" stroke-width="2"/>
    <line x1="54.0007" x2="47.2807" y1="25.1005" y2="50.8995" fill="none" stroke="#000" stroke-linecap="round" stroke-linejoin="round" stroke-width="2"/>
    <line x1="23.0104" x2="16.2904" y1="25.1005" y2="50.8995" fill="none" stroke="#000" stroke-linecap="round" stroke-linejoin="round" stroke-width="2"/>
  </g>
</svg>

<svg viewBox="0 0 72 72" xmlns="http://www.w3.org/2000/svg"><path fill="#b3b3b3" d="M68 4v64H4V4h64m4-4H0v72h72V0z"/><path fill="none" stroke="#00a5ff" stroke-miterlimit="10" stroke-width=".1" d="M12.923 10.958h46.154A1.923 1.923 0 0161 12.881v46.154a1.923 1.923 0 01-1.923 1.923H12.923A1.923 1.923 0 0111 59.035V12.881a1.923 1.923 0 011.923-1.923z"/><rect x="16" y="4" rx="2.254" ry="2.254" width="40" height="64" fill="none" stroke="#00a5ff" stroke-miterlimit="10" stroke-width=".1"/><rect x="16" y="4" rx="2.254" ry="2.254" width="40" height="64" transform="rotate(90 36 36)" fill="none" stroke="#00a5ff" stroke-miterlimit="10" stroke-width=".1"/><circle cx="36" cy="36" r="29" fill="none" stroke="#00a5ff" stroke-miterlimit="10" stroke-width=".1"/><path d="M10.99 27.047a2.654 2.654 0 012.456-1.947h51.38a1.494 1.494 0 011.52 1.942l-5.429 21.916a2.694 2.694 0 01-2.48 1.942H7.386a1.516 1.516 0 01-1.543-1.947zm27.68-1.946L31.951 50.9m22.05-25.799L47.281 50.9M23.01 25.101L16.29 50.9" stroke-linecap="round" stroke-miterlimit="10" stroke-width="6" stroke="#fff" fill="none" stroke-linejoin="round"/><path fill="#fcea2b" d="M11.602 27.036a2.734 2.734 0 012.504-1.935h50.72a1.472 1.472 0 011.496 1.935L60.61 48.964a2.734 2.734 0 01-2.504 1.936H7.386a1.472 1.472 0 01-1.496-1.935z"/><path fill="#f1b31c" d="M60.444 49.614l3.495-13.429a193.65 193.65 0 01-24.953 8.955 218.027 218.027 0 01-28.8 5.76h48.558a1.711 1.711 0 001.7-1.286z"/><path d="M34.006 25.1h9.6l-6.72 25.8h-9.6l6.72-25.8zm15.661 0h9.6l-6.72 25.8h-9.6l6.72-25.8zm-31.321 0h9.6l-6.72 25.8h-9.6l6.72-25.8z"/><path fill="none" d="M11.602 27.036a2.734 2.734 0 012.504-1.935h50.72a1.472 1.472 0 011.496 1.935L60.61 48.964a2.734 2.734 0 01-2.504 1.936H7.386a1.472 1.472 0 01-1.496-1.935z"/><g fill="none" stroke="#000" stroke-linecap="round" stroke-linejoin="round" stroke-width="2"><path d="M10.99 27.047a2.654 2.654 0 012.456-1.947h51.38a1.494 1.494 0 011.52 1.942l-5.429 21.916a2.694 2.694 0 01-2.48 1.942H7.386a1.516 1.516 0 01-1.543-1.947zm27.68-1.946L31.951 50.9m22.05-25.799L47.281 50.9M23.01 25.101L16.29 50.9"/></g></svg>
